X: 27746
T: Morning Star, The
R: reel
M: 4/4
K: Dmajor
B3c BGEF|G2 (3Bcd efge|dBAd BGEF|GBAF G3A|
BA A2 BGEF|G2 Bd efge|dBAd BGEF|GBAF G3A||
(3Bcd ef g2 ga|fd d2 bdad|Bdef gfga|afdf e3d|
(3Bcd ef g2 ga|fd d2 bdad|Bd d2 dBde|fggf gfed||

